X:382
T:Barley Mow,The. (p)1698.PLFD.382
M:6/4
L:1/4
Q:3/4=100
S:Playford, Dancing Master,9th Ed,extra pages(9C),1698.
O:England
H:1698
Z:Chris Partington
K:Bb
d|B2FB2c|d3-d2e|(fd)B(dc)B|cA2-A2f|(dB)Be2f|
g3-g2g|_agf(cd)=e|f3-f2:||:f|c2fc2d|e3-e2f|
(gG)G(cd)e|A3-A2c|d2Be2c|f2dgaf|b3-b2a|
gabf2e|e3(g2f)|f3def|cdec2B|Bb2-b2:|
